icon-themes/breeze_svg/cmd/sc_splitcell.svg

<svg viewBox="0 0 16 16" xmlns="http://www.w3.org/2000/svg"><path d="m2 2v12h1 6 1 3 1v-12zm1 1h3v1h1v-1h2v1h1v-1h1 1 1v2h-1-1v1h1 1v3h-1-1v1h1 1v3h-1-1-1v-2h-1v2h-2v-2h-1v2h-3v-3h2v-1h-2v-3h2v-1h-2z" fill="#4d4d4d"/><path d="m5 4v7h6v-7zm1 1h4v1l-1 1.5 1 1.5v1h-4v-1l1-1.5-1-1.5z" fill="#da4453"/></svg>

<svg xmlns="http://www.w3.org/2000/svg" viewBox="0 0 16 16">
 <path 
     style="fill:#4d4d4d" 
     d="M 2 2 L 2 14 L 3 14 L 9 14 L 10 14 L 13 14 L 14 14 L 14 2 L 2 2 z M 3 3 L 6 3 L 6 4 L 7 4 L 7 3 L 9 3 L 9 4 L 10 4 L 10 3 L 11 3 L 12 3 L 13 3 L 13 5 L 12 5 L 11 5 L 11 6 L 12 6 L 13 6 L 13 9 L 12 9 L 11 9 L 11 10 L 12 10 L 13 10 L 13 13 L 12 13 L 11 13 L 10 13 L 10 11 L 9 11 L 9 13 L 7 13 L 7 11 L 6 11 L 6 13 L 3 13 L 3 10 L 5 10 L 5 9 L 3 9 L 3 6 L 5 6 L 5 5 L 3 5 L 3 3 z "
     />
 <path 
     style="fill:#da4453" 
     d="M 5 4 L 5 11 L 11 11 L 11 4 L 5 4 z M 6 5 L 10 5 L 10 6 L 9 7.5 L 10 9 L 10 10 L 6 10 L 6 9 L 7 7.5 L 6 6 L 6 5 z "
     />
 </svg>
